nova/resources/svg/fluent/add-circle.svg

<svg viewBox="0 0 24 24" fill="none" xmlns="http://www.w3.org/2000/svg">
<path d="M12 2C17.5228 2 22 6.47715 22 12C22 17.5228 17.5228 22 12 22C6.47715 22 2 17.5228 2 12C2 6.47715 6.47715 2 12 2ZM12 3.5C7.30558 3.5 3.5 7.30558 3.5 12C3.5 16.6944 7.30558 20.5 12 20.5C16.6944 20.5 20.5 16.6944 20.5 12C20.5 7.30558 16.6944 3.5 12 3.5ZM12 7C12.4142 7 12.75 7.33579 12.75 7.75V11.25H16.25C16.6642 11.25 17 11.5858 17 12C17 12.4142 16.6642 12.75 16.25 12.75H12.75V16.25C12.75 16.6642 12.4142 17 12 17C11.5858 17 11.25 16.6642 11.25 16.25V12.75H7.75C7.33579 12.75 7 12.4142 7 12C7 11.5858 7.33579 11.25 7.75 11.25H11.25V7.75C11.25 7.33579 11.5858 7 12 7Z" fill="currentColor"/>
</svg>

<svg viewBox="0 0 24 24" fill="none" xmlns="http://www.w3.org/2000/svg"><path d="M12 2c5.523 0 10 4.477 10 10s-4.477 10-10 10S2 17.523 2 12 6.477 2 12 2zm0 1.5a8.5 8.5 0 100 17 8.5 8.5 0 000-17zM12 7a.75.75 0 01.75.75v3.5h3.5a.75.75 0 010 1.5h-3.5v3.5a.75.75 0 01-1.5 0v-3.5h-3.5a.75.75 0 010-1.5h3.5v-3.5A.75.75 0 0112 7z" fill="currentColor"/></svg>
